icon/fa/pen-fancy.svg

<svg xmlns="http://www.w3.org/2000/svg" viewBox="0 0 512 512"><!--! Font Awesome Free 6.1.2 by @fontawesome - https://fontawesome.com License - https://fontawesome.com/license/free (Icons: CC BY 4.0, Fonts: SIL OFL 1.1, Code: MIT License) Copyright 2022 Fonticons, Inc.--><path d="M373.5 27.11C388.5 9.885 410.2 0 433 0c43.6 0 79 35.36 79 78.98 0 22.82-9.9 44.52-27.1 59.52L277.7 319l-85.6-84.7L373.5 27.11zM255.1 341.7l-19.2 83.4c-4 17.1-17 30.7-33.9 35.4L24.35 510.3l95.35-95.4c2.7.7 5.4 1.1 8.3 1.1 17.7 0 32-14.3 32-32s-14.3-32-32-32-32 14.3-32 32c0 2.9.38 5.6 1.08 8.3L1.724 487.6 51.47 309.1c4.74-16 18.33-29 35.43-33l83.4-19.2 84.8 84.8z"/></svg>

<svg xmlns="http://www.w3.org/2000/svg" viewBox="0 0 512 512" height="1em" width="1em">
<!--! Font Awesome Free 6.1.2 by @fontawesome - https://fontawesome.com License - https://fontawesome.com/license/free (Icons: CC BY 4.0, Fonts: SIL OFL 1.1, Code: MIT License) Copyright 2022 Fonticons, Inc.-->
  <path d="M373.5 27.11C388.5 9.885 410.2 0 433 0C476.6 0 512 35.36 512 78.98C512 101.8 502.1 123.5 484.9 138.5L277.7 319L192.1 234.3L373.5 27.11zM255.1 341.7L235.9 425.1C231.9 442.2 218.9 455.8 202 460.5L24.35 510.3L119.7 414.9C122.4 415.6 125.1 416 128 416C145.7 416 160 401.7 160 384C160 366.3 145.7 352 128 352C110.3 352 96 366.3 96 384C96 386.9 96.38 389.6 97.08 392.3L1.724 487.6L51.47 309.1C56.21 293.1 69.8 280.1 86.9 276.1L170.3 256.9L255.1 341.7z"/>
</svg>
